assets/icons/ICON_DONATIONS.svg

<svg width="18" height="18" viewBox="0 0 250 250" fill="none" xmlns="http://www.w3.org/2000/svg">
<path d="M0.75 16.485C0.75 16.905 1.0875 17.2425 1.5075 17.2425H11.25C11.67 17.2425 12.0075 16.905 12.0075 16.485V15.75H0.75V16.485ZM6.375 6.7425C3.5625 6.7425 0.75 8.25 0.75 11.25H12C12 8.25 9.1875 6.7425 6.375 6.7425ZM2.715 9.75C3.5475 8.5875 5.3175 8.2425 6.375 8.2425C7.4325 8.2425 9.2025 8.5875 10.035 9.75H2.715ZM0.75 12.75H12V14.25H0.75V12.75ZM13.5 3.75V0.75H12V3.75H8.25L8.4225 5.25H15.5925L14.5425 15.75H13.5V17.25H14.79C15.42 17.25 15.9375 16.7625 16.0125 16.1475L17.25 3.75H13.5Z" fill="white"/>
</svg>

<svg fill="#FFFFFF" version="1.1" id="Layer_1" xmlns="http://www.w3.org/2000/svg" xmlns:xlink="http://www.w3.org/1999/xlink" x="0px" y="0px"
	 width="18px" height="18px" viewBox="0 0 18 18" enable-background="new 0 0 18 18" xml:space="preserve">
<path d="M0.75,16.484c0,0.421,0.337,0.758,0.757,0.758h9.743c0.42,0,0.758-0.337,0.758-0.758V15.75H0.75V16.484z
	 M6.375,6.743c-2.813,0-5.625,1.507-5.625,4.507H12C12,8.25,9.188,6.743,6.375,6.743z M2.715,9.75
	c0.833-1.163,2.603-1.507,3.66-1.507s2.828,0.345,3.66,1.507H2.715z M0.75,12.75H12v1.5H0.75V12.75z M13.5,3.75v-3H12v3H8.25
	l0.172,1.5h7.169l-1.049,10.5H13.5v1.5h1.29c0.63,0,1.147-0.487,1.223-1.103L17.25,3.75H13.5z"/>
</svg>
